svgs/regular/comment-code.svg

<svg xmlns="http://www.w3.org/2000/svg" viewBox="0 0 512 512"><!--! Font Awesome Pro 6.0.0-alpha3 by @fontawesome - https://fontawesome.com License - https://fontawesome.com/license (Commercial License) --><path d="M256 32C114.6 32 .0273 125.1 .0273 240c0 47.63 19.91 91.25 52.91 126.3c-14.88 39.5-45.87 72.88-46.37 73.25c-6.625 7-8.374 17.25-4.624 26C5.818 474.3 14.38 480 24 480c61.5 0 109.1-25.75 139.1-46.25C191.1 442.8 223.3 448 256 448c141.4 0 255.1-93.13 255.1-208S397.4 32 256 32zM256.1 400c-26.75 0-53.13-4.125-78.38-12.12L154.9 380.8L135.4 394.5c-14.25 10.12-33.88 21.38-57.5 29c7.375-12.12 14.38-25.75 19.88-40.25l10.62-28l-20.62-21.88C69.82 314.1 48.07 282.3 48.07 240c0-88.25 93.25-160 208-160s208 71.75 208 160S370.8 400 256.1 400zM216.1 159c-9.375-9.375-24.56-9.375-33.94 0l-64 64c-9.375 9.375-9.375 24.56 0 33.94l64 64C187.7 325.7 193.9 328 200 328s12.28-2.344 16.97-7.031c9.375-9.375 9.375-24.56 0-33.94L169.9 240l47.03-47.03C226.3 183.6 226.3 168.4 216.1 159zM328.1 159c-9.375-9.375-24.56-9.375-33.94 0s-9.375 24.56 0 33.94L342.1 240l-47.03 47.03c-9.375 9.375-9.375 24.56 0 33.94C299.7 325.7 305.9 328 312 328s12.28-2.344 16.97-7.031l64-64c9.375-9.375 9.375-24.56 0-33.94L328.1 159z"/></svg>

<svg xmlns="http://www.w3.org/2000/svg" viewBox="0 0 512 512"><!-- Font Awesome Pro 6.0.0-alpha2 by @fontawesome - https://fontawesome.com License - https://fontawesome.com/license (Commercial License) --><path d="M256.068 32C114.693 32 0.068 125.125 0.068 240C0.068 287.625 19.943 331.25 52.943 366.25C38.068 405.75 7.068 439.125 6.568 439.5C-0.057 446.5 -1.807 456.75 1.943 465.5C5.818 474.25 14.443 480 24.068 480C85.568 480 134.068 454.25 163.193 433.75C192.068 442.75 223.318 448 256.068 448C397.443 448 512.068 354.875 512.068 240S397.443 32 256.068 32ZM256.068 400C229.318 400 202.943 395.875 177.693 387.875L154.943 380.75L135.443 394.5C121.193 404.625 101.568 415.875 77.943 423.5C85.318 411.375 92.318 397.75 97.818 383.25L108.443 355.25L87.818 333.375C69.818 314.125 48.068 282.25 48.068 240C48.068 151.75 141.318 80 256.068 80S464.068 151.75 464.068 240S370.818 400 256.068 400ZM216.969 159.031C207.594 149.656 192.406 149.656 183.031 159.031L119.031 223.031C109.656 232.406 109.656 247.594 119.031 256.969L183.031 320.969C187.719 325.656 193.859 328 200 328S212.281 325.656 216.969 320.969C226.344 311.594 226.344 296.406 216.969 287.031L169.937 240L216.969 192.969C226.344 183.594 226.344 168.406 216.969 159.031ZM328.969 159.031C319.594 149.656 304.406 149.656 295.031 159.031S285.656 183.594 295.031 192.969L342.062 240L295.031 287.031C285.656 296.406 285.656 311.594 295.031 320.969C299.719 325.656 305.859 328 312 328S324.281 325.656 328.969 320.969L392.969 256.969C402.344 247.594 402.344 232.406 392.969 223.031L328.969 159.031Z"/></svg>
